!!!AGN: Motet
!!!SCT: Picker (1987)
!!!voices: 4
!!!COM: Anonymous
!!!OTL: Laudate Dominum omnes gentes (Motetti novi libro II)
**kern	**kern	**kern	**kern
*part4	*part3	*part2	*part1
*staff4	*staff3	*staff2	*staff1
*I"Bassus	*I"Tenor	*I"Altus	*I"Superius
*I'B	*I'T	*I'A	*I'S
*clefF4	*clefG2	*clefG2	*clefG2
*k[]	*k[]	*k[]	*k[]
*C:	*C:	*C:	*C:
*M2/1	*M2/1	*M2/1	*M2/1
*met(C|)	*met(C|)	*met(C|)	*met(C|)
!!section: Prima pars: Laudate Dominum omnes gentes
!!!OMD: Prima pars: Laudate Dominum omnes gentes
0A	0r	0r	0r
=1	=1	=1	=1
1A	0r	0a	0r
1D	.	.	.
=2	=2	=2	=2
1.F	0r	1a	0r
.	.	1d	.
2G	.	.	.
=3	=3	=3	=3
1A	0r	1.f	0r
1B-X	.	.	.
.	.	2g	.
=4	=4	=4	=4
2A	0r	1a	0r
2.d	.	.	.
.	.	1b-X	.
4c	.	.	.
4d	.	.	.
4e	.	.	.
=5	=5	=5	=5
2f	0r	2a	0r
2.e	.	2.g	.
4d	.	4f	.
4c	.	4e	.
4B	.	4d	.
=6	=6	=6	=6
2A	0r	2.f	0r
1d	.	.	.
.	.	4g	.
.	.	1e	.
2c#i	.	.	.
=7	=7	=7	=7
1.d	0a	[0d	0r
2D	.	.	.
=8	=8	=8	=8
[0D	1a	0d_	0a
.	1d	.	.
=9	=9	=9	=9
0D]	1.f	0d]	1a
.	.	.	1d
.	2g	.	.
=10	=10	=10	=10
0r	1a	0r	1.f
.	1b-X	.	.
.	.	.	2g
=11	=11	=11	=11
0r	2a	0r	1a
.	2.d	.	.
.	.	.	1b-i
.	4c	.	.
.	4d	.	.
.	4e	.	.
=12	=12	=12	=12
0r	2f	0r	2a
.	2.e	.	2.g
.	4d	.	4f
.	4c	.	4e
.	4B	.	4d
=13	=13	=13	=13
2r	2A	0r	2.f
2D	1d	.	.
.	.	.	4g
1A	.	.	1e
.	2c#i	.	.
=14	=14	=14	=14
1B-X	1d	2r	1d
.	.	2d	.
1A	1r	1a	1r
=15	=15	=15	=15
1G	2r	1b-X	0r
.	2d	.	.
2F	1a	1a	.
2F	.	.	.
=16	=16	=16	=16
2G	1b-X	1g	2r
2G	.	.	2d
1D	1a	2f	1a
.	.	2f	.
=17	=17	=17	=17
1r	1g	2g	1b-X
.	.	2g	.
2r	2f	1d	1a
2D	2f	.	.
=18	=18	=18	=18
2E	2g	1r	1g
2C	2g	.	.
2D	1d	2r	2f
2F	.	2d	2f
=19	=19	=19	=19
2E	1r	2e	2g
2C	.	2e	2g
[1D	2r	[1f	1d
.	2a	.	.
=20	=20	=20	=20
1D]	2a	2f]	2r
.	2a	2f	2a
[1F	2d	1f	2a
.	[2a	.	2a
=21	=21	=21	=21
1F]	4a]	2f	1cc
.	4g	.	.
.	4f	2a	.
.	4e	.	.
2G	2d	2g	2b
2A	2c	[2f	[2a
=22	=22	=22	=22
1B-X	1d	2f]	2a]
.	.	4e	2g
.	.	4d	.
1A	1e	1c	[1a
=23	=23	=23	=23
1D	2f	2d	1a]
.	2.a	2.f	.
2r	.	.	[1dd
.	4g	4g	.
[2d	[2f	2a	.
=24	=24	=24	=24
4d]	4f]	2b-i	1dd]
4c	4e	.	.
4B	4d	1a	.
4A	4c	.	.
1B	1d	.	1dd
.	.	2g	.
=25	=25	=25	=25
0A	0e	0a	1cc
.	.	.	2r
.	.	.	2cc
=26	=26	=26	=26
0r	2r	0r	2b
.	2cc	.	2a
.	2b	.	2g
.	2a	.	2f
=27	=27	=27	=27
0r	2g	0r	2e
.	2f	.	2.a
.	2e	.	.
.	.	.	4g
.	[2a	.	4f
.	.	.	4e
=28	=28	=28	=28
0r	4a]	0r	2d
.	4g	.	.
.	4f	.	2a
.	4e	.	.
.	4d	.	4b
.	4e	.	4a
.	4f	.	[2dd
.	4d	.	.
=29	=29	=29	=29
1r	1e	1r	4dd]
.	.	.	4cc#i
.	.	.	4cc#i
.	.	.	8bL
.	.	.	8cc#iJ
2r	1d	2r	1dd
2D	.	2d	.
=30	=30	=30	=30
2A	2r	2c	2r
2D	2d	2f	2a
2A	2c	2e	2a
2D	2f	2d	2a
=31	=31	=31	=31
0A	2e	2c	2a
.	2d	2.f	2a
.	2c	.	[1a
.	.	4e	.
.	2f	[2d	.
=32	=32	=32	=32
1A	1e	2d]	1a]
.	.	2c#i	.
2.D	2d	[1d	2r
.	[2f	.	[2a
4E	.	.	.
=33	=33	=33	=33
2F	4f]	1d]	2a]
.	4e	.	.
2G	1d	.	4g
.	.	.	4f
1A	.	1r	1e
.	2c#i	.	.
=34	=34	=34	=34
2r	0d	2r	1d
2D	.	2a	.
1G	.	1b-X	1r
=35	=35	=35	=35
2F	0r	2a	2r
2D	.	2f	2a
2G	.	2g	1b-X
2G	.	2g	.
=36	=36	=36	=36
1D	2r	1f	2a
.	2a	.	2f
1r	1b-X	1r	2g
.	.	.	2g
=37	=37	=37	=37
1d	2a	1dd	1f
.	2f	.	.
1c	2g	1ee	2r
.	2g	.	2cc
=38	=38	=38	=38
2d	1f	2dd	2b
2d	.	2dd	1a
1B	1d	1dd	.
.	.	.	2g
=39	=39	=39	=39
1A	1e	1cc	1a
1r	[1f	2.dd	1d
.	.	4cc	.
=40	=40	=40	=40
1d	1f]	2a	1dd
.	.	2b	.
1c	1g	2.cc	1ee
.	.	8bL	.
.	.	8aJ	.
=41	=41	=41	=41
2d	1f	2b	2dd
2d	.	1a	2dd
1B	1d	.	1dd
.	.	2g#i	.
=42	=42	=42	=42
0A	0e	[0a	[0cc
=43	=43	=43	=43
2r	2r	0a]	0cc]
2A	2e	.	.
2A	2e	.	.
2A	2e	.	.
=44	=44	=44	=44
1d	1f	0r	0r
2c	2e	.	.
[2d	[2f	.	.
=45	=45	=45	=45
4d]	4f]	0r	0r
4c	4g	.	.
4B	1a	.	.
4A	.	.	.
1B	.	.	.
.	2g#i	.	.
=46	=46	=46	=46
0A	0a	2r	2r
.	.	2e	2cc
.	.	2e	2cc
.	.	2e	2cc
=47	=47	=47	=47
0r	0r	1f	1dd
.	.	2e	2cc
.	.	[2f	[2dd
=48	=48	=48	=48
0r	0r	4f]	4dd]
.	.	4g	4cc
.	.	1a	4b
.	.	.	4a
.	.	.	2b
.	.	2g	2dd
=49	=49	=49	=49
2r	2r	[0a	0cc
2A	2e	.	.
2A	2e	.	.
2A	2e	.	.
=50	=50	=50	=50
1d	1f	0a]	0r
2c	2e	.	.
[2d	[2f	.	.
=51	=51	=51	=51
4d]	4f]	0r	0r
4c	4g	.	.
4B	1a	.	.
4A	.	.	.
1B	.	.	.
.	2g#i	.	.
=52	=52	=52	=52
0A	0a	2r	2r
.	.	2e	2cc
.	.	2e	2cc
.	.	2e	2cc
=53	=53	=53	=53
0r	0r	1f	1dd
.	.	2e	2cc
.	.	[2f	[2dd
=54	=54	=54	=54
0r	0r	4f]	4dd]
.	.	4g	4cc
.	.	1a	4b
.	.	.	4a
.	.	.	1b
.	.	2g#i	.
=55	=55	=55	=55
1r	2r	1a	0a
.	2d	.	.
2r	1f	1r	.
2A	.	.	.
=56	=56	=56	=56
1c	1e	0r	0r
1B	1d	.	.
=57	=57	=57	=57
1A	2.f	0r	0r
.	4f	.	.
2.c	2e	.	.
.	2e	.	.
4c	.	.	.
=58	=58	=58	=58
2B	1d	2r	1r
2B	.	2d	.
1A	1r	1f	2r
.	.	.	2a
=59	=59	=59	=59
0r	0r	1e	1cc
.	.	1d	1b
=60	=60	=60	=60
0r	0r	2.f	1a
.	.	4f	.
.	.	2e	2.cc
.	.	2e	.
.	.	.	4cc
=61	=61	=61	=61
1r	2r	1d	2b
.	2d	.	2b
2r	2f	1r	1a
2A	2f	.	.
=62	=62	=62	=62
2c	1e	1r	0r
2c	.	.	.
1B	1d	2r	.
.	.	2d	.
=63	=63	=63	=63
1A	0r	2f	2r
.	.	2f	2a
1r	.	1e	2cc
.	.	.	2cc
=64	=64	=64	=64
1r	0r	1d	1b
2r	.	1r	[1a
[2A	.	.	.
=65	=65	=65	=65
4A]	2r	1r	1a]
4A	.	.	.
2A	2.a	.	.
2A	.	2r	1r
.	4a	.	.
[2F	2a	[2a	.
=66	=66	=66	=66
4F]	2a	4a]	2r
4E	.	4a	.
4D	2.f	2a	2.a
4C	.	.	.
[1D	.	2a	.
.	4e	.	4a
.	4d	2f	2a
.	4c	.	.
=67	=67	=67	=67
1D]	1d	4f	2a
.	.	4e	.
.	.	4d	2.f
.	.	4c	.
2r	1r	1d	.
.	.	.	4e
[2d	.	.	4d
.	.	.	4c
=68	=68	=68	=68
4d]	2r	1r	1d
4d	.	.	.
2d	2.dd	.	.
2d	.	2r	1r
.	4dd	.	.
[2B-i	2dd	[2dd	.
=69	=69	=69	=69
4B-]	2dd	4dd]	2r
4A	.	4dd	.
4G	2.b-i	2dd	2.dd
4F	.	.	.
[1G	.	2dd	.
.	4a	.	4dd
.	4g	[2b-i	2dd
.	4f	.	.
=70	=70	=70	=70
1G]	1g	4b-]	2dd
.	.	4a	.
.	.	4g	2.b-i
.	.	4f	.
2r	2r	2g	.
.	.	.	4a
2c	2e	2cc	4g
.	.	.	4f
=71	=71	=71	=71
2G	2d	2b	1g
2c	2e	2cc	.
2d	2f	1a	2r
2A	2e	.	2cc
=72	=72	=72	=72
2B	2d	2g	2b
2A	2e	2.a	2cc
2d	2f	.	2dd
.	.	4b	.
2c	2e	2cc	2ee
=73	=73	=73	=73
2d	2f	2a	2dd
4c	4e	2.cc	2.ee
4B	4d	.	.
2A	2c	.	.
.	.	4b	4dd
2c	2e	4a	4cc
.	.	4g	4b
=74	=74	=74	=74
2d	2f	2f	2a
2B	2d	2g	1dd
1A	1e	1a	.
.	.	.	2cc#i
=75	=75	=75	=75
2D	2.d	2.f	2dd
1d	.	.	2.ff
.	4e	4g	.
.	2f	4a	.
.	.	4b	4ee
2c	2g	2cc	[2ee
=76	=76	=76	=76
1d	1f	2b	4ee]
.	.	.	4dd
.	.	1a	1dd
1B	1d	.	.
.	.	2g	4cc
.	.	.	4b
=77	=77	=77	=77
[0A	2e	[0a	[0cc
.	1f	.	.
.	4e	.	.
.	4d	.	.
=78	=78	=78	=78
0A;]	0e;	0a;]	0cc;]
=79	=79	=79	=79
00Dl	00dl	00al	00ddl
==	==	==	==
*-	*-	*-	*-
!!!system-decoration: [*]
!!!RDF**kern: i = editorial accidental
!!!RDF**kern: l = terminal long
!!!ENC: Benjamin Ory
!!!END: 2022/2/25
!!!EED: Benjamin Ory
!!!EEV: 2022/02/25
!!!YEC: Copyright 2022 Benjamin Ory, All Rights Reserved
!!!ONB: Translated from MusicXML on 2022/02/25